apps/penxle.com/src/assets/icons/happy.svg

<svg fill="currentColor" viewBox="0 0 18 18" xmlns="http://www.w3.org/2000/svg">
  <path
    fill-rule="evenodd"
    clip-rule="evenodd"
    d="M17.5833 9.00033C17.5833 13.6027 13.8523 17.3337 9.24996 17.3337C4.64759 17.3337 0.916626 13.6027 0.916626 9.00033C0.916626 4.39795 4.64759 0.666992 9.24996 0.666992C13.8523 0.666992 17.5833 4.39795 17.5833 9.00033ZM4.79559 10.1121C5.10203 9.95325 5.47925 10.0729 5.63814 10.3793C5.86239 10.8118 6.32891 11.3617 6.97638 11.8019C7.61817 12.2383 8.4007 12.542 9.24996 12.542C10.0992 12.542 10.8817 12.2383 11.5235 11.8019C12.171 11.3617 12.6375 10.8118 12.8618 10.3793C13.0207 10.0729 13.3979 9.95325 13.7043 10.1121C14.0108 10.271 14.1304 10.6483 13.9715 10.9547C13.6402 11.5936 13.0234 12.2937 12.2264 12.8356C11.4237 13.3814 10.4007 13.792 9.24996 13.792C8.09922 13.792 7.07619 13.3814 6.27354 12.8356C5.47656 12.2937 4.85975 11.5936 4.52845 10.9547C4.36955 10.6483 4.48916 10.271 4.79559 10.1121ZM6.74996 6.50033C7.2102 6.50033 7.58329 6.12723 7.58329 5.66699C7.58329 5.20676 7.2102 4.83366 6.74996 4.83366C6.28972 4.83366 5.91663 5.20676 5.91663 5.66699C5.91663 6.12723 6.28972 6.50033 6.74996 6.50033ZM11.75 6.50033C12.2102 6.50033 12.5833 6.12723 12.5833 5.66699C12.5833 5.20676 12.2102 4.83366 11.75 4.83366C11.2897 4.83366 10.9166 5.20676 10.9166 5.66699C10.9166 6.12723 11.2897 6.50033 11.75 6.50033Z"
  />
</svg>

<svg xmlns="http://www.w3.org/2000/svg" fill="currentColor" viewBox="0 0 18 18">
  <path
    fill-rule="evenodd"
    d="M17.583 9A8.333 8.333 0 1 1 .917 9a8.333 8.333 0 0 1 16.666 0ZM4.796 10.112a.625.625 0 0 1 .842.267c.224.433.69.983 1.338 1.423.642.436 1.425.74 2.274.74.85 0 1.632-.304 2.274-.74.647-.44 1.114-.99 1.338-1.423a.625.625 0 0 1 1.11.576c-.332.639-.949 1.339-1.746 1.88-.802.546-1.825.957-2.976.957-1.15 0-2.174-.41-2.976-.956-.797-.542-1.414-1.242-1.746-1.881a.625.625 0 0 1 .268-.843ZM6.75 6.5a.833.833 0 1 0 0-1.666.833.833 0 0 0 0 1.666Zm5 0a.833.833 0 1 0 0-1.666.833.833 0 0 0 0 1.666Z"
    clip-rule="evenodd"
  />
</svg>
